X:101
T:no name
R:slide
H:Also played in A, #102
Z:id:hn-slide-101
M:6/8
L:1/8
K:G
G2E D2E | G2A BAB | d2B A2G | E2A ABA |
G2E D2E | G2A BAB | d2B ABA |1 G3 G2A :|2 G3 G2g ||
|: g2f e2d | B2e ege | d2B A2G | E2A ABA |
[1 g2f e2d | B2e ege | d2B ABA | G3 G2g :|
[2 G2E D2E | G2A BAB | d2B ABA | G3 G2A ||

